X: 189
T: SLIDE: This Is My Love, Do You Like Her?
T: Biddy Crowley’s Ball / Pussycat up in a Plum Tree
C: C: Trad.; S: Bothy Band; Julia Clifford
C: Set Leaders: Oliushka, Anton
Z: Anton Zille ed.; nobu at The Session
N: https://thesession.org/members/26966/sets/63219
R: Slide
M: 12/8
L: 1/8
Q: 3/8=130
K: Ador
A2A AGE c2B c2d|e2e ede g3 g2e|
def g2e dBA G2A|1 B2e dBG A2B c2B:|2 B2e dBG A3 ABd||
|:e2a age d2g gfg|eaa agf g2b a2g|
eaf g2e dBA G2A|1 B2e dBG A3 ABd:|2 B2e dBG A2B c2B||

